X:1     %Music
T:Cockles and Mussels
T:Molly Malone
B:Singing Together, Autumn 1974, BBC Publications
F:http://www.folkinfo.org/songs
M:3/4     %Meter
L:1/8     %
K:G
D2 |G2 G3 G |GB-B2 G2 |A2 A3 A | Ac-c2
w:In Dub-lin's fair ci-ty_ Where girls are so pre-tty,_
 A2 |B2 A2 G2 |d2 c2 B2 |BA-A2 A2 | A4
w: I first set my eyes on sweet Mol-ly_ Mal-one,
 DD |G2 G3 G |GB-B2 G2 |A2 A3 A | Ac-c2
w:As she wheeled her wheel-bar-row_ Through streets broad and nar-row,_ 
AA |Bd-d2 c2 |Bd-d2 c2 |B3 G A2 | G4
w:Cry-ing "Cock-les_ and mus-sels!_ A-live, a-live Oh!"
 D2 |G3 G G2 |GB-B2 G2 |A3 A A2 | Ac-c2
w: "A-live, a-live Oh!__ A-live, a-live  Oh!"__
AA |Bd2-dc2 |Bd2-dc2 |B3 G A2 | G4 z2 |]
w: Cry-ing, "Cock-_les and mus-_sels! A-live, A-live Oh" 